front/public/static/landing/logos/gray/vanta.svg

<svg fill="none" height="300" viewBox="0 0 600 300" width="600" xmlns="http://www.w3.org/2000/svg" xmlns:xlink="http://www.w3.org/1999/xlink"><clipPath id="a"><path d="m116 78h369v143h-369z"/></clipPath><g clip-path="url(#a)"><path d="m165.349 221c28.588 0 43.37-8.81 47.832-17.645.257-.509-.235-1.086-.778-.907-5.032 1.656-8.789-1.419-9.21-4.968 0 0-1.407-15.05-6.439-16.519.298-.61 1.511-5.42-2.238-9.864 1.025-3.144.178-5.213-.589-6.778.934-1.14 1.652-2.61 1.963-4.042.077-.34.075-.639.352-.959 1.768-1.461 3.719-2.666 4.906-4.805 2.139-3.864.706-8.278-1.886-11.535-.263-.359-.469-.532-.488-1.456.007-1.579-.281-3.203-1.134-4.537-.435-.678-1.006-1.264-1.604-1.807-2.491-2.31-5.47-4.016-8.332-5.857-.393-.251-.851-.585-1.022-1.041-.901-3.335-3.23-5.914-6.127-6.616-.061-2.233-2.429-5.62-6.012-5.62-1.093 0-1.997.59-2.561-.427-1.31-2.471-3.921-2.93-5.283-2.992-.229-.011-.294-.317-.086-.415.437-.208 1.098-.496 2.079-.872 4.92-2.342 2.884-15.6831.87-22.7231-.943-2.6281-3.332-10.1026-9.185-10.5967-.403-.0337-.815-.0245-1.204.0872-1.127.3228-1.962 1.2207-2.549 2.4644-1.936 3.8704-2.42 14.3172-3.132 18.7841-1.01 6.3701-1.925 13.2031-5.115 16.0041-1.359-3.566-3.326-5.218-4.401-5.155-.936.219.331 2.029-.209 4.698-.375 1.536-1.23 2.969-2.686 2.969-4.266 0-8.109-21.2223-9.256-33.9714-.03-.3335-.063-.6654-.124-.9959-.563-3.0809-2.193-4.8998-3.915-4.8998-.873 0-4.008-.3167-7.598 5.2976-2.468 4.3782-4.036 8.9553-4.188 17.4795.003 8.589 3.856 14.334 5.417 17.159 6.377 10.432 7.229 14.033 6.022 20.392-1.227 6.165 2.515 9.631 2.515 9.631-.529.816-1.227 3-1.388 5.397-.103 1.527.211 4.265.944 5.96-1.61 3.45-1.571 6.191-1.571 7.92 0 4.005-1.758 5.636-4.042 6.349.616 2.184 4.714 3.354 7.084 1.02-.699 6.861-1.992 13.041-3.797 20.69-1.123 5.237-.933 8.171-.083 10.655.383 1.12.982 2.151 1.716 3.081 8.743 11.092 25.15 11.966 36.532 11.966zm-.014-14.972c-3.15-.509-6.097-2.071-8.248-4.436-5.732 1.887-11.692-2.91-9.88-9.243.289-.829 1.531-.525 1.408.339-.178 1.116.028 2.257.509 3.239 1.281 2.911 5.098 3.694 7.438 1.666.866-.759 2.117-.47 2.705.471 5.124 6.916 15.756 5.619 19.322-2.145.522-1.084.864-2.233 1.062-3.423.14-.845 1.413-.765 1.448.088.288 8.356-7.577 14.75-15.765 13.445z" fill="#364153"/><path d="m197.48 146.366c-.547 0-1.136.76-1.287 1.944-.326 1.669-.214 4.754-1.71 4.754-1.034 0-1.128-2.068-2.867-3.974-1.804-1.849-4.39-2.038-6.049-3.368-.922-.637-1.471-1.42-1.411-2.765 0 0 .197-2.141 3.103-1.75 1.382.144 3.622.479 5.009.637 2.477.278 3.081-1.555 3.155-2.177.158-1.46-1.399-2.668-2.385-3.519-1.245-1.078-2.603-2.047-4.01-2.916-.255-.157-.515-.321-.775-.486-3.528-2.238-9.801-5.984-13.319-1.707-1.261 1.679-1.808 3.615-2.203 5.218-.73 2.934-2.263 4.066-3.352 5.856-1.73 2.841-2.918 6.067-3.009 9.386-.015 4.793 2.964 9.488 7.718 12.422 3.946 2.059 5.971 2.059 7.551 1.639.289-.098.923-.537.487-1.264-.078-.155-.298-.494-.432-.714-.45-.825.166-1.579 1.08-.874.601.468 1.214.936 1.922 1.222.595.241 1.273.335 1.888.173h.001c.72-.234 1.084-.703 1.126-1.303.041-.716-.285-1.27-.824-1.565-.821-.398-2.639-1.392-3.406-1.955-.866-.603-1.791-1.504-2.113-1.843-1.047-1.108-1.346-2.19-1.998-2.19-.109.007-.216.068-.289.15-.409.435-.412 1.151-.432 1.559-.014.302.033.76-.391.76-1.052 0-1.048-2.181-1.047-2.773 0-.811.298-2.914 1.558-2.914.389 0 .917.518 1.125.722 2.775 3.064 6.001 5.447 10.088 5.447 3.128 0 5.742-1.757 7.386-3.405 1.287-1.285 2.134-2.894 2.191-4.557.035-1.054-.474-3.869-2.079-3.869zm-17.927 2.851c-.38.21-.834-.05-1.247-.185-.832-.272-1.776.003-2.462.545-.47.373-.83.861-1.122 1.387-.318.575-.378 1.334-1.063 1.334-.562 0-.845-.776-.907-1.095-.33-1.737.512-3.669 2.079-4.501s3.739-.392 4.752 1.059c.157.225.291.479.309.752.019.274-.096.571-.338.704z" fill="#fff"/><path d="m158.938 129.345c-1.496.022-2.947.661-4.005 1.741-.595.607-1.92 2.572-1.791 5.599-.022.445-.611.604-.848.225-.954-1.701-1.01-3.476-.639-4.785.822-2.647 3.146-4.846 6.285-4.846 4.119 0 5.152 2.68 5.358 3.51.099.345-.329.599-.592.354-.682-.632-1.735-1.798-3.771-1.798z" fill="#fff"/><path d="m159.275 135.339c-.984.087-1.761-.545-1.848-1.522-.087-.961.564-1.753 1.548-1.84.984-.088 1.782.578 1.868 1.538.088.98-.584 1.737-1.567 1.824z" fill="#fff"/><path d="m127.028 117.044c-1.451 0-6.21-7.679-6.21-18.5221 0-4.8662 1.256-10.0598 3.54-10.0598 1.405 0 1.723 2.977 1.788 3.8596.739 9.3133-.468 15.6393 1.294 24.0753.117.494-.183.649-.412.649z" fill="#fff"/><g fill="#364153"><path d="m392.002 186.358c-1.561-1.91-2.412-4.297-2.412-6.758v-17.775c0-12.614-5.977-19.838-16.546-19.838-14.072 0-16.797 7.628-20.544 14.117-.181.314-.582.425-.904.254l-.782-.418c-.335-.179-.457-.596-.268-.925l1.069-1.859c.675-1.153 1.036-2.463 1.036-3.798v-2.682c0-1.73-1.41-3.133-3.149-3.133h-15.324c-2.308 0-3.552 2.696-2.046 4.436l2.232 2.584c2.251 2.605 3.489 5.927 3.489 9.362v18.451c0 2.047-.44 4.071-1.29 5.934l-1.775 3.892c-.81 1.777.495 3.795 2.459 3.795h19.145c2.28 0 3.533-2.637 2.086-4.39l-1.55-1.877c-1.58-1.917-2.446-4.319-2.446-6.799v-10.18c0-3.554.855-7.082 2.646-10.156 2.174-3.733 5.013-5.641 8.566-5.641 4.781 0 7.35 3.389 7.35 9.509v16.537c0 1.998-.418 3.973-1.23 5.801l-1.52 3.425c-.787 1.776.518 3.771 2.469 3.771h18.172c2.274 0 3.528-2.625 2.094-4.38l-1.029-1.259z"/><path d="m426.132 184.907c-.612.12-1.211.205-1.739.217-4.938 0-7.315-3.093-7.315-9.456v-25.282h8.993c1.041 0 1.885-.84 1.885-1.876v-3.062c0-1.036-.844-1.876-1.885-1.876h-11.508c-.323 0-.585-.26-.585-.581v-.858c0-.32.259-.58.58-.582h1.168c.746.002 1.352-.599 1.352-1.341v-6.688c0-1.276-1.039-2.309-2.32-2.309h-6.619c-1.206 0-2.273.777-2.631 1.923-.764 2.509-2.603 10.438-8.584 10.438h-1.779c-1.036 0-1.878.838-1.878 1.875v3.063c0 1.037.842 1.875 1.878 1.875h5.485v25.922c0 10.547 5.393 16.366 15.169 16.366 4.878 0 9.302-1.773 11.981-4.969 1.043-1.248-.043-3.111-1.648-2.798z"/><path d="m330.04 183c-2.914.524-4.885-1.748-4.885-5.312v-17.155c0-12.235-7.794-18.807-22.932-18.807-13.557 0-22.816 5.186-22.841 13.018-.006 1.406.524 2.784 1.305 4.111 1.257 1.918 3.526 3.204 6.126 3.204 3.957 0 7.166-2.97 7.166-6.634-.012-3.757-3.201-5.662-4.168-6.02.687-.583 3.656-2.859 8.04-2.859 6.968 0 10.699 5.255 10.699 13.436v3.252c-5.231 0-11.096.522-15.223 1.524-10.097 2.195-15.418 7.912-15.418 15.033 0 8.031 6.424 13.049 16.605 13.049 7.067 0 12.938-2.46 15.69-6.572 1.739 3.473 5.594 5.662 10.551 5.662 6.411 0 9.769-3.329 10.83-7.285.274-1.126-.581-1.833-1.545-1.646zm-21.49-3.847c-.546 3.829-3.206 6.115-7.06 6.115-4.224 0-7.067-2.829-7.067-7.302 0-3.468 1.558-6.5 4.957-7.959 2.291-1.007 5.866-1.556 9.17-1.646v10.794z"/><path d="m483.402 183c-2.914.524-4.885-1.748-4.885-5.312v-17.155c0-12.235-7.793-18.807-22.932-18.807-13.557 0-22.816 5.186-22.841 13.018-.006 1.406.525 2.784 1.306 4.111 1.256 1.918 3.525 3.204 6.125 3.204 3.958 0 7.166-2.97 7.166-6.634-.012-3.757-3.201-5.662-4.168-6.02.688-.583 3.656-2.859 8.04-2.859 6.968 0 10.699 5.255 10.699 13.436v3.252c-5.23 0-11.096.522-15.222 1.524-10.097 2.195-15.419 7.912-15.419 15.033 0 8.031 6.424 13.049 16.605 13.049 7.067 0 12.939-2.46 15.691-6.572 1.739 3.473 5.593 5.662 10.55 5.662 6.411 0 9.769-3.329 10.83-7.285.274-1.126-.581-1.833-1.545-1.646zm-21.49-3.847c-.545 3.829-3.205 6.115-7.06 6.115-4.223 0-7.066-2.829-7.066-7.302 0-3.468 1.557-6.5 4.957-7.959 2.291-1.007 5.865-1.556 9.169-1.646v10.794z"/><path d="m280.515 127.393h-8.321c-1.791 0-2.863 1.981-1.879 3.468l1.425 2.156c1.218 1.842 1.456 4.158.638 6.206l-14.927 37.359c-.688 1.799-1.384 3.032-1.699 3.335-.169.162-.452.211-.672.047l-.787-.623c-.251-.186-.236-.457-.007-.713.439-.578.711-1.275.863-1.91.183-.762.121-1.562-.158-2.295l-12.642-33.249c-.835-2.194-.802-4.622.091-6.794l1.35-3.283c.727-1.767-.58-3.704-2.498-3.704h-20.371c-2.744 0-4.176 3.25-2.315 5.257l1.296 1.399c2.381 2.572 4.263 5.558 5.552 8.81l18.15 47.197c.475 1.198 1.636 1.984 2.93 1.984h10.051c1.292 0 2.452-.785 2.927-1.978l23.512-58.991c.703-1.764-.603-3.676-2.509-3.676z"/></g></g></svg>

<svg width="600" height="300" viewBox="0 0 600 300" fill="none" xmlns="http://www.w3.org/2000/svg">
<g clip-path="url(#clip0_2227_7809)">
<path d="M165.349 221C193.937 221 208.719 212.19 213.181 203.355C213.438 202.846 212.946 202.269 212.403 202.448C207.371 204.104 203.614 201.029 203.193 197.48C203.193 197.48 201.786 182.43 196.754 180.961C197.052 180.351 198.265 175.541 194.516 171.097C195.541 167.953 194.694 165.884 193.927 164.319C194.861 163.179 195.579 161.709 195.89 160.277C195.967 159.937 195.965 159.638 196.242 159.318C198.01 157.857 199.961 156.652 201.148 154.513C203.287 150.649 201.854 146.235 199.262 142.978C198.999 142.619 198.793 142.446 198.774 141.522C198.781 139.943 198.493 138.319 197.64 136.985C197.205 136.307 196.634 135.721 196.036 135.178C193.545 132.868 190.566 131.162 187.704 129.321C187.311 129.07 186.853 128.736 186.682 128.28C185.781 124.945 183.452 122.366 180.555 121.664C180.494 119.431 178.126 116.044 174.543 116.044C173.45 116.044 172.546 116.634 171.982 115.617C170.672 113.146 168.061 112.687 166.699 112.625C166.47 112.614 166.405 112.308 166.613 112.21C167.05 112.002 167.711 111.714 168.692 111.338C173.612 108.996 171.576 95.6549 169.562 88.6149C168.619 85.9868 166.23 78.5123 160.377 78.0182C159.974 77.9845 159.562 77.9937 159.173 78.1054C158.046 78.4282 157.211 79.3261 156.624 80.5698C154.688 84.4402 154.204 94.887 153.492 99.3539C152.482 105.724 151.567 112.557 148.377 115.358C147.018 111.792 145.051 110.14 143.976 110.203C143.04 110.422 144.307 112.232 143.767 114.901C143.392 116.437 142.537 117.87 141.081 117.87C136.815 117.87 132.972 96.6477 131.825 83.8986C131.795 83.5651 131.762 83.2332 131.701 82.9027C131.138 79.8218 129.508 78.0029 127.786 78.0029C126.913 78.0029 123.778 77.6862 120.188 83.3005C117.72 87.6787 116.152 92.2558 116 100.78C116.003 109.369 119.856 115.114 121.417 117.939C127.794 128.371 128.646 131.972 127.439 138.331C126.212 144.496 129.954 147.962 129.954 147.962C129.425 148.778 128.727 150.962 128.566 153.359C128.463 154.886 128.777 157.624 129.51 159.319C127.9 162.769 127.939 165.51 127.939 167.239C127.939 171.244 126.181 172.875 123.897 173.588C124.513 175.772 128.611 176.942 130.981 174.608C130.282 181.469 128.989 187.649 127.184 195.298C126.061 200.535 126.251 203.469 127.101 205.953C127.484 207.073 128.083 208.104 128.817 209.034C137.56 220.126 153.967 221 165.349 221ZM165.335 206.028C162.185 205.519 159.238 203.957 157.087 201.592C151.355 203.479 145.395 198.682 147.207 192.349C147.496 191.52 148.738 191.824 148.615 192.688C148.437 193.804 148.643 194.945 149.124 195.927C150.405 198.838 154.222 199.621 156.562 197.593C157.428 196.834 158.679 197.123 159.267 198.064C164.391 204.98 175.023 203.683 178.589 195.919C179.111 194.835 179.453 193.686 179.651 192.496C179.791 191.651 181.064 191.731 181.099 192.584C181.387 200.94 173.522 207.334 165.334 206.029L165.335 206.028Z" fill="#364153"/>
<path d="M197.48 146.366C196.933 146.366 196.344 147.126 196.193 148.31C195.867 149.979 195.979 153.064 194.483 153.064C193.449 153.064 193.355 150.996 191.616 149.09C189.812 147.241 187.226 147.052 185.567 145.722C184.645 145.085 184.096 144.302 184.156 142.957C184.156 142.957 184.353 140.816 187.259 141.207C188.641 141.351 190.881 141.686 192.268 141.844C194.745 142.122 195.349 140.289 195.423 139.667C195.581 138.207 194.024 136.999 193.038 136.148C191.793 135.07 190.435 134.101 189.028 133.232C188.773 133.075 188.513 132.911 188.253 132.746C184.725 130.508 178.452 126.762 174.934 131.039C173.673 132.718 173.126 134.654 172.731 136.257C172.001 139.191 170.468 140.323 169.379 142.113C167.649 144.954 166.461 148.18 166.37 151.499C166.355 156.292 169.334 160.987 174.088 163.921C178.034 165.98 180.059 165.98 181.639 165.56C181.928 165.462 182.562 165.023 182.126 164.296C182.048 164.141 181.828 163.802 181.694 163.582C181.244 162.757 181.86 162.003 182.774 162.708C183.375 163.176 183.988 163.644 184.696 163.93C185.291 164.171 185.969 164.265 186.584 164.103C186.584 164.103 186.584 164.103 186.585 164.103C187.305 163.869 187.669 163.4 187.711 162.8C187.752 162.084 187.426 161.53 186.887 161.235C186.066 160.837 184.248 159.843 183.481 159.28C182.615 158.677 181.69 157.776 181.368 157.437C180.321 156.329 180.022 155.247 179.37 155.247C179.261 155.254 179.154 155.315 179.081 155.397C178.672 155.832 178.669 156.548 178.649 156.956C178.635 157.258 178.682 157.716 178.258 157.716C177.206 157.716 177.21 155.535 177.211 154.943C177.211 154.132 177.509 152.029 178.769 152.029C179.158 152.029 179.686 152.547 179.894 152.751C182.669 155.815 185.895 158.198 189.982 158.198C193.11 158.198 195.724 156.441 197.368 154.793C198.655 153.508 199.502 151.899 199.559 150.236C199.594 149.182 199.085 146.367 197.48 146.367V146.366ZM179.553 149.217C179.173 149.427 178.719 149.167 178.306 149.032C177.474 148.76 176.53 149.035 175.844 149.577C175.374 149.95 175.014 150.438 174.722 150.964C174.404 151.539 174.344 152.298 173.659 152.298C173.097 152.298 172.814 151.522 172.752 151.203C172.422 149.466 173.264 147.534 174.831 146.702C176.398 145.87 178.57 146.31 179.583 147.761C179.74 147.986 179.874 148.24 179.892 148.513C179.911 148.787 179.796 149.084 179.554 149.217H179.553Z" fill="white"/>
<path d="M158.938 129.345C157.442 129.367 155.991 130.006 154.933 131.086C154.338 131.693 153.013 133.658 153.142 136.685C153.12 137.13 152.531 137.289 152.294 136.91C151.34 135.209 151.284 133.434 151.655 132.125C152.477 129.478 154.801 127.279 157.94 127.279C162.059 127.279 163.092 129.959 163.298 130.789C163.397 131.134 162.969 131.388 162.706 131.143C162.024 130.511 160.971 129.345 158.935 129.345H158.938Z" fill="white"/>
<path d="M159.275 135.339C158.291 135.426 157.514 134.794 157.427 133.817C157.34 132.856 157.991 132.064 158.975 131.977C159.959 131.889 160.757 132.555 160.843 133.515C160.931 134.495 160.259 135.252 159.276 135.339H159.275Z" fill="white"/>
<path d="M127.028 117.044C125.577 117.044 120.818 109.365 120.818 98.5219C120.818 93.6557 122.074 88.4621 124.358 88.4621C125.763 88.4621 126.081 91.4391 126.146 92.3217C126.885 101.635 125.678 107.961 127.44 116.397C127.557 116.891 127.257 117.046 127.028 117.046V117.044Z" fill="white"/>
<path d="M392.002 186.358C390.441 184.448 389.59 182.061 389.59 179.6V161.825C389.59 149.211 383.613 141.987 373.044 141.987C358.972 141.987 356.247 149.615 352.5 156.104C352.319 156.418 351.918 156.529 351.596 156.358L350.814 155.94C350.479 155.761 350.357 155.344 350.546 155.015L351.615 153.156C352.29 152.003 352.651 150.693 352.651 149.358V146.676C352.651 144.946 351.241 143.543 349.502 143.543H334.178C331.87 143.543 330.626 146.239 332.132 147.979L334.364 150.563C336.615 153.168 337.853 156.49 337.853 159.925V178.376C337.853 180.423 337.413 182.447 336.563 184.31L334.788 188.202C333.978 189.979 335.283 191.997 337.247 191.997H356.392C358.672 191.997 359.925 189.36 358.478 187.607L356.928 185.73C355.348 183.813 354.482 181.411 354.482 178.931V168.751C354.482 165.197 355.337 161.669 357.128 158.595C359.302 154.862 362.141 152.954 365.694 152.954C370.475 152.954 373.044 156.343 373.044 162.463V179C373.044 180.998 372.626 182.973 371.814 184.801L370.294 188.226C369.507 190.002 370.812 191.997 372.763 191.997H390.935C393.209 191.997 394.463 189.372 393.029 187.617L392 186.358H392.002Z" fill="#364153"/>
<path d="M426.132 184.907C425.52 185.027 424.921 185.112 424.393 185.124C419.455 185.124 417.078 182.031 417.078 175.668V150.386H426.071C427.112 150.386 427.956 149.546 427.956 148.51V145.448C427.956 144.412 427.112 143.572 426.071 143.572H414.563C414.24 143.572 413.978 143.312 413.978 142.991V142.133C413.978 141.813 414.237 141.553 414.558 141.551H415.726C416.472 141.553 417.078 140.952 417.078 140.21V133.522C417.078 132.246 416.039 131.213 414.758 131.213H408.139C406.933 131.213 405.866 131.99 405.508 133.136C404.744 135.645 402.905 143.574 396.924 143.574H395.145C394.109 143.574 393.267 144.412 393.267 145.449V148.512C393.267 149.549 394.109 150.387 395.145 150.387H400.63V176.309C400.63 186.856 406.023 192.675 415.799 192.675C420.677 192.675 425.101 190.902 427.78 187.706C428.823 186.458 427.737 184.595 426.132 184.908V184.907Z" fill="#364153"/>
<path d="M330.04 183C327.126 183.524 325.155 181.252 325.155 177.688V160.533C325.155 148.298 317.361 141.726 302.223 141.726C288.666 141.726 279.407 146.912 279.382 154.744C279.376 156.15 279.906 157.528 280.687 158.855C281.944 160.773 284.213 162.059 286.813 162.059C290.77 162.059 293.979 159.089 293.979 155.425C293.967 151.668 290.778 149.763 289.811 149.405C290.498 148.822 293.467 146.546 297.851 146.546C304.819 146.546 308.55 151.801 308.55 159.982V163.234C303.319 163.234 297.454 163.756 293.327 164.758C283.23 166.953 277.909 172.67 277.909 179.791C277.909 187.822 284.333 192.84 294.514 192.84C301.581 192.84 307.452 190.38 310.204 186.268C311.943 189.741 315.798 191.93 320.755 191.93C327.166 191.93 330.524 188.601 331.585 184.645C331.859 183.519 331.004 182.812 330.04 182.999V183ZM308.55 179.153C308.004 182.982 305.344 185.268 301.49 185.268C297.266 185.268 294.423 182.439 294.423 177.966C294.423 174.498 295.981 171.466 299.38 170.007C301.671 169 305.246 168.451 308.55 168.361V179.155V179.153Z" fill="#364153"/>
<path d="M483.402 183C480.488 183.524 478.517 181.252 478.517 177.688V160.533C478.517 148.298 470.724 141.726 455.585 141.726C442.028 141.726 432.769 146.912 432.744 154.744C432.738 156.15 433.269 157.528 434.05 158.855C435.306 160.773 437.575 162.059 440.175 162.059C444.133 162.059 447.341 159.089 447.341 155.425C447.329 151.668 444.14 149.763 443.173 149.405C443.861 148.822 446.829 146.546 451.213 146.546C458.181 146.546 461.912 151.801 461.912 159.982V163.234C456.682 163.234 450.816 163.756 446.69 164.758C436.593 166.953 431.271 172.67 431.271 179.791C431.271 187.822 437.695 192.84 447.876 192.84C454.943 192.84 460.815 190.38 463.567 186.268C465.306 189.741 469.16 191.93 474.117 191.93C480.528 191.93 483.886 188.601 484.947 184.645C485.221 183.519 484.366 182.812 483.402 182.999V183ZM461.912 179.153C461.367 182.982 458.707 185.268 454.852 185.268C450.629 185.268 447.786 182.439 447.786 177.966C447.786 174.498 449.343 171.466 452.743 170.007C455.034 169 458.608 168.451 461.912 168.361V179.155V179.153Z" fill="#364153"/>
<path d="M280.515 127.393H272.194C270.403 127.393 269.331 129.374 270.315 130.861L271.74 133.017C272.958 134.859 273.196 137.175 272.378 139.223L257.451 176.582C256.763 178.381 256.067 179.614 255.752 179.917C255.583 180.079 255.3 180.128 255.08 179.964L254.293 179.341C254.042 179.155 254.057 178.884 254.286 178.628C254.725 178.05 254.997 177.353 255.149 176.718C255.332 175.956 255.27 175.156 254.991 174.423L242.349 141.174C241.514 138.98 241.547 136.552 242.44 134.38L243.79 131.097C244.517 129.33 243.21 127.393 241.292 127.393H220.921C218.177 127.393 216.745 130.643 218.606 132.65L219.902 134.049C222.283 136.621 224.165 139.607 225.454 142.859L243.604 190.056C244.079 191.254 245.24 192.04 246.534 192.04H256.585C257.877 192.04 259.037 191.255 259.512 190.062L283.024 131.071C283.727 129.307 282.421 127.395 280.515 127.395V127.393Z" fill="#364153"/>
</g>
<defs>
<clipPath id="clip0_2227_7809">
<rect width="369" height="143" fill="white" transform="translate(116 78)"/>
</clipPath>
</defs>
</svg>
